X:9264
T:Lansdowne Lass, The
C:Josie McDermott
R:reel
D:Altan: Horse with a Heart
Z:id:hn-reel-296
M:C|
K:D
D2FA GEFE|D2FA d2ef|geag efdB|AF~F2 EGFE|
D2FA GEFE|D2FA d2ef|geag edcd|1 eddc dBAF:|2 eddc d2ag||
|:fdfa g2ag|fdfa g2ag|fd=cA BG~G2|AB^cA d2ag|
fdfa g2ag|fdfa g2ag|fd=cA BG~G2|1 AB^cA d2ag:|2 AB^cA dBAF||
